X: 42115
T: Ward's Bow
R: reel
M: 4/4
K: Adorian
~A,3(E {G}ED)B,G,|(A,B,C)(E {G}ED)B,D|CB,CE G2GE|FAAF GEDB,|
A,2A,(E {G}ED)B,G,|(A,B,C)(E {G}ED)B,D|CB,CE ~G3E|1 FEDF E3G,:|2 FEDF E3D||
E2AE ^cEAE|~F3A dfed|BAGA Bdge|d(B{d}BA) G(E{G}ED)|
E2AE ^cEAE|FEFA dfed|BAGA B2Bd|1 BAGA BAGD:|2 BAGA BAGG,||

